X:91
T:Joe's Jigg THO1.091
M:6/8
L:1/8
Z:vmp. Peter Dunk 2012.from a transcription by Fynn Titford-Mock 2006
B:Thompson's Compleat Collection of 200 Favourite Country Dances Vol.I,1758
Q:3/8=100
K:D
DED F2 A|EFE G2 B|DED FGA|dAG FED|DED F2 A|EFE G2 B|ABc def|edc d3:|
|:(f3/g/f/e/) (f3/g/f/e/)|(f3/g/f/e/) f2 A|\
Bcd ABc|dAG FED|DED FAd|EFE GBe|ABc def|edc d3:|

